X:113
T:score199
L:1/8
Q:1/4=96
M:6/8
I:linebreak $
K:Emin
 B,2 B B3- | B(Bc BAG) | A2 F A3- | A(AB AGF) |$ G2 E G3- | GFE ^D2 F | B,6- | B,3- B, z z | %8
 B,2 B B3- |$ B(Bc BAG) | A2 F A3- | A(AB AGF) | G2 E G3- |$ GFE ^D2 F | E6- | E3- E z z |] %16
